X: 1
T:Muineira de Casu
M:6/8
L:1/8
R:Double Jig
K:A
Acd |: e2e dcd | e2e Acd | e2e dcB | c2A Acd |!
          e2e dcd | f2e Acd |1 e2e dcB | A2E Acd :|2  e2e cBc | Aaa aff
|!
|: ecd edf | edc Acd | e2e dcd | f2e aaf |!
  ecd edf | edc Acd | e2e cBc |1 A(a a2)f :|2 A2z z3 |!
|: d3 dcd | e2e ABc | d2d dcB | c2A ABc |!
   d2d dcd | f2e Acd | e2e cBc |1 A2A ABc :|2 A2A Acd :||
